src/components/00-materials/images-raw/24 x 7.svg

<svg width="96" height="96" viewBox="0 0 96 96" fill="none" xmlns="http://www.w3.org/2000/svg">
<path d="M44 75C46.3582 77.8585 49.4002 80.0751 52.8438 81.4439C56.2874 82.8128 60.021 83.2897 63.6981 82.8302C67.3752 82.3708 70.8767 80.99 73.8776 78.8159C76.8785 76.6418 79.2817 73.745 80.864 70.3941C82.4464 67.0432 83.1567 63.347 82.929 59.6483C82.7013 55.9496 81.543 52.3683 79.5617 49.2368C77.5803 46.1053 74.84 43.5251 71.595 41.7355C68.3501 39.9459 64.7057 39.0049 61 39C59.5054 39.0021 58.0148 39.1528 56.55 39.45C55.6815 43.659 53.5992 47.5214 50.5603 50.5603C47.5214 53.5992 43.659 55.6815 39.45 56.55C39.1529 58.0147 39.0021 59.5054 39 61C39.0115 64.1314 39.6934 67.2241 41 70.07M52 21C48.5014 16.6897 43.4946 13.8712 37.9947 13.116C32.4949 12.3608 26.9136 13.7254 22.3827 16.9331C17.8518 20.1409 14.7103 24.9517 13.5953 30.39C12.4803 35.8283 13.4751 41.4872 16.3781 46.2191C19.2812 50.9511 23.8751 54.4019 29.2284 55.872C34.5817 57.342 40.2937 56.7212 45.2062 54.1354C50.1187 51.5497 53.864 47.1925 55.6827 41.9474C57.5014 36.7023 57.2573 30.9618 55 25.89L52 21Z" stroke="#00008F" stroke-width="2" stroke-linecap="round" stroke-linejoin="round"/>
<path d="M44 81V75H50M52 15V21H46M43 43V26L36 38H46M33 43H24L31.66 32.5C32.0801 31.8703 32.3214 31.1384 32.358 30.3823C32.3947 29.6262 32.2253 28.8744 31.868 28.2071C31.5107 27.5397 30.9789 26.9819 30.3294 26.5932C29.6799 26.2045 28.937 25.9995 28.18 26C27.0714 26 26.0082 26.4404 25.2243 27.2243C24.4404 28.0082 24 29.0714 24 30.18M57 54H66L58 71" stroke="#00008F" stroke-width="2" stroke-linecap="round" stroke-linejoin="round"/>
</svg>

<svg width="96" height="96" viewBox="0 0 96 96" fill="none" xmlns="http://www.w3.org/2000/svg"><path d="M44 75a22 22 0 1017-36 22.538 22.538 0 00-4.45.45 22 22 0 01-17.1 17.1A22.545 22.545 0 0039 61a21.931 21.931 0 002 9.07M52 21a21.87 21.87 0 103 4.89L52 21z" stroke="#00008F" stroke-width="2" stroke-linecap="round" stroke-linejoin="round"/><path d="M44 81v-6h6m2-60v6h-6m-3 22V26l-7 12h10m-13 5h-9l7.66-10.5a4.18 4.18 0 00-6.436-5.276A4.18 4.18 0 0024 30.18M57 54h9l-8 17" stroke="#00008F" stroke-width="2" stroke-linecap="round" stroke-linejoin="round"/></svg>
